X:1
T:Title
%%score { ( 1 3 ) | ( 2 4 ) }
L:1/8
M:6/4
K:Ab
V:1 treble nm="Grand Piano"
V:3 treble 
V:2 bass 
V:4 bass 
V:1
 z6 z4[Q:1/4=132] [CE]2 | [CE]4 [CA]2 [Ec]4 [Fd]2 | B4 =A2 B4 E2 | E4 G2 B4 c2 | %4
 [CA]6- [CA]4 [=EA]2 | [FA]4 [FB]2 [FA]4 F2 | E4 [DE]2 [CA]4 [Ec]2 | [=DF]4 [DG]2 [DA]4 [DB]2 | %8
 B6- B4 E2 | [Ec]4 [=D_c]2 [E=c]4 [Fd]2 | B4 =A2 B4 [C=Ec]2 | z6 .[DB]6 | [=Ec]6- [Ec]4 [Ec]2 | %13
 [_Ge]4 [Gc]2 [GA]4 [GA]2 |[M:7/4] B2 A2 F2 A6 F2 |[M:6/4] E4 c2 d4 G2 | %16
[M:5/4] [A,CA]2- [A,CA]2- [A,CA]6 |[M:1/4][K:bass] [E,E]2 |[M:6/4] [E,E]4[K:treble] F2 A4 F2 | %19
 [G,G]6- [G,G]4 F2 | [G,E]2 F4 G4 F2 | [A,E]6- [A,E]4 E2 | [E,E]4 F2 A4 F2 | G6- G4 G2 | %24
 B4 F2 c4 F2 | B6- B4 E2 | [E,E]4 F2 A4 F2 | [G,G]6- [G,G]4 F2 | [G,E]4 F2 G4 d2 | c6- c4 c2 | %30
 c4 c2 d4 c2 | [Cc]4 B2 F4 A2 | z2 G4 z6 |[M:5/4] A2- A2- A6 |] %34
V:2
 z6 z4 [A,,A,]2 | [A,,A,]4 [A,,A,]2 [A,,A,]4 [A,,A,]2 | [E,G,D]4 [E,_G,C]2 [E,=G,D]4 [E,G,D]2 | %3
 [E,G,D]4 [E,B,D]2 [E,G,D]4 [E,G,E]2 | [A,,A,]6- [A,,A,]4 [C,A,]2 | %5
 [D,A,]4 [D,D]2 [D,D]4 [D,A,D]2 | [C,A,]4 [B,,G,]2 [A,,A,]4 [A,,A,]2 | %7
 [B,,A,]4 [B,,G,]2 [B,,F,]4 [B,,A,]2 | [E,G,D]6- [E,G,D]4 [E,G,]2 | %9
 [A,,A,]4 [A,,A,]2 [A,,A,]4 [A,,A,]2 | [E,G,D]4 [E,_G,C]2 [E,=G,D]4 C,2 | F,4 F,2 z2 A,2 [D,F,]2 | %12
 [C,G,]6- [C,G,]4 [C,G,]2 | [A,,A,]4 [A,,A,]2 [C,A,]4 [C,A,]2 | %14
[M:7/4] [D,D]4 [D,A,D]2 [=D,F,_C]6 [D,A,C]2 |[M:6/4] [E,A,C]4 [E,A,E]2 [E,G,E]4 [E,B,D]2 | %16
[M:5/4] A,,2- A,,2- A,,6 |[M:1/4] A,,2 |[M:6/4] z4 F,2 A,4 F,2 | z6 z4 A,2 | z2 A,4 B,4 A,2 | %21
 z6 z4 E,2 | z4 F,2 A,4 F,2 | [E,G,]12 | B,4 F,2 C4 F,2 | [E,G,]6- [E,G,]4 E,2 | z4 F,2 A,4 F,2 | %27
 z6 z4 F,2 | z4 A,2 B,4 G,2 | [C,C]12 | C4 C2 D4 C2 | z4 B,2 F,4 A,2 | .A,6 C4 B,2 | %33
[M:5/4] [A,,A,]2- [A,,A,]2- [A,,A,]6 |] %34
V:3
 x12 | x12 | x12 | x12 | x12 | x12 | x12 | x12 | x12 | x12 | x12 | [CFA]4 [CFA]2 F2- [FA]2 [FB]2 | %12
 x12 | x12 |[M:7/4] F4 z2 z2 z2 z4 |[M:6/4] x12 |[M:5/4] x10 |[M:1/4][K:bass] x2 | %18
[M:6/4] x4[K:treble] x8 | x12 | x12 | x12 | x12 | x12 | x12 | x12 | x12 | x12 | x12 | x12 | x12 | %31
 x12 | .A4 G,2 c4 B2 |[M:5/4] x10 |] %34
V:4
 x12 | x12 | x12 | x12 | x12 | x12 | x12 | x12 | x12 | x12 | x12 | z6 .D,6 | x12 | x12 | %14
[M:7/4] x14 |[M:6/4] x12 |[M:5/4] x10 |[M:1/4] x2 |[M:6/4] A,,12 | E,12 | E,12 | A,,12 | A,,12 | %23
 x12 | B,,12 | x12 | A,,12 | E,12 | E,12 | x12 | F,12 | B,,12 | E,12 |[M:5/4] x10 |] %34

